X: 216
T:Noo Mun I Lave Faither an Mither
G:Shetland wedding march
S:Katherine Campbell, The Fiddle in Scottish Culture, 2007
M:6/8
L:1/8
Q:3/8=80
K:GMin
  G2A B2B|BcB AG
F|G2A B2B|BcB BA
z|G2A B2B|c2c d2
B|BAG GFD|F2F D3|]

From the other end of Scotland, this hexatonic Border tune ends on
the fifth:

